svg/opa.svg

<?xml version="1.0" encoding="UTF-8"?>
<svg xmlns="http://www.w3.org/2000/svg" xmlns:xlink="http://www.w3.org/1999/xlink" width="29.044001" height="32" viewBox="0 0 29.044001 32">
<path fill-rule="nonzero" fill="rgb(74.901961%, 74.901961%, 74.901961%)" fill-opacity="1" d="M 4.011719 15.871094 C 4.535156 13.984375 5.5 12.253906 6.832031 10.820312 C 6.398438 10.496094 4.679688 9.160156 4.597656 8.109375 C 4.472656 6.390625 6.191406 0.613281 6.191406 0.613281 C 6.191406 0.613281 1 6.933594 0.640625 9.488281 C 0.355469 11.496094 3.636719 15.476562 3.980469 15.878906 L 3.980469 15.871094 Z M 25.140625 15.769531 L 25.140625 15.785156 L 25.144531 15.804688 C 25.71875 15.113281 28.691406 11.40625 28.421875 9.488281 C 28.0625 6.933594 22.871094 0.613281 22.871094 0.613281 C 22.871094 0.613281 24.589844 6.390625 24.464844 8.109375 C 24.390625 9.117188 22.824219 10.371094 22.304688 10.769531 C 23.589844 12.117188 24.582031 13.824219 25.140625 15.769531 M 25.140625 15.769531 "/>
<path fill-rule="nonzero" fill="rgb(33.72549%, 38.823529%, 40%)" fill-opacity="1" d="M 25.140625 15.777344 L 25.140625 15.761719 C 24.605469 13.894531 23.632812 12.179688 22.304688 10.761719 C 20.285156 8.628906 17.539062 7.351562 14.578125 7.351562 L 14.578125 14.183594 L 14.585938 14.183594 C 14.980469 14.1875 15.351562 14.367188 15.601562 14.671875 C 15.851562 14.976562 15.953125 15.375 15.878906 15.761719 C 15.761719 16.382812 15.21875 16.835938 14.585938 16.839844 L 14.5625 16.839844 L 14.5625 19.375 L 14.550781 31.375 L 14.808594 31.375 C 14.808594 31.375 17.597656 27.335938 19.101562 26.183594 C 20.863281 24.832031 25.140625 23.15625 25.140625 23.15625 L 25.140625 15.855469 L 25.160156 15.847656 C 25.152344 15.835938 25.152344 15.8125 25.144531 15.796875 C 25.144531 15.789062 25.144531 15.785156 25.140625 15.777344 M 25.140625 15.777344 "/>
<path fill-rule="nonzero" fill="rgb(49.019608%, 56.862745%, 60%)" fill-opacity="1" d="M 14.5625 19.382812 L 14.5625 16.847656 C 13.828125 16.84375 13.238281 16.25 13.238281 15.515625 C 13.242188 14.78125 13.835938 14.191406 14.570312 14.191406 L 14.578125 14.191406 L 14.578125 7.382812 C 11.605469 7.382812 8.851562 8.667969 6.832031 10.820312 C 5.546875 12.183594 4.5625 13.910156 4.011719 15.871094 L 3.988281 15.871094 L 3.988281 23.265625 C 3.988281 23.265625 8.261719 24.941406 10.027344 26.292969 C 11.488281 27.414062 14.308594 31.386719 14.308594 31.386719 L 14.570312 31.386719 L 14.570312 31.382812 L 14.558594 31.382812 Z M 14.5625 19.382812 "/>
<path fill-rule="nonzero" fill="rgb(100%, 100%, 100%)" fill-opacity="1" d="M 13.242188 15.519531 C 13.242188 15.644531 13.257812 15.761719 13.292969 15.871094 C 13.449219 16.429688 13.953125 16.839844 14.5625 16.847656 L 14.585938 16.847656 C 15.3125 16.835938 15.898438 16.246094 15.902344 15.519531 C 15.902344 14.792969 15.3125 14.199219 14.585938 14.191406 L 14.570312 14.191406 C 13.835938 14.191406 13.242188 14.785156 13.242188 15.519531 M 13.242188 15.519531 "/>
</svg>

<svg role="img" viewBox="0 0 29.044 32" xmlns="http://www.w3.org/2000/svg"><path d="M4.012 15.871a12.2 12.2 0 0 1 2.82-5.05c-.434-.325-2.152-1.66-2.234-2.712C4.473 6.391 6.19.613 6.19.613S1 6.933.641 9.488c-.286 2.008 2.996 5.989 3.34 6.39v-.007Zm21.129-.101v.015l.004.02c.574-.692 3.546-4.399 3.277-6.317-.36-2.554-5.55-8.875-5.55-8.875s1.718 5.778 1.593 7.496c-.074 1.008-1.64 2.262-2.16 2.66 1.285 1.348 2.277 3.055 2.836 5m0 0" fill="rgb(74.901962%, 74.901962%, 74.901962%)"/><path d="M25.14 15.777v-.015a12.2 12.2 0 0 0-2.835-5c-2.02-2.133-4.766-3.41-7.727-3.41v6.832h.008a1.33 1.33 0 0 1 1.293 1.578 1.325 1.325 0 0 1-1.293 1.078h-.024v2.535l-.011 12h.258s2.789-4.04 4.293-5.191c1.761-1.352 6.039-3.028 6.039-3.028v-7.3l.02-.008c-.009-.012-.009-.036-.016-.051q.001-.01-.004-.02m0 0" fill="rgb(33.725491%, 38.82353%, 40.000001%)"/><path d="M14.563 19.383v-2.535a1.33 1.33 0 0 1-1.325-1.332 1.33 1.33 0 0 1 1.332-1.325h.008V7.383c-2.973 0-5.726 1.285-7.746 3.437-1.285 1.364-2.27 3.09-2.82 5.051h-.024v7.395s4.274 1.675 6.04 3.027c1.46 1.121 4.28 5.094 4.28 5.094h.262v-.004h-.011Zm0 0" fill="rgb(49.019608%, 56.862748%, 60.000002%)"/><path d="M13.242 15.52q0 .188.051.351c.156.559.66.969 1.27.977h.023a1.337 1.337 0 0 0 1.316-1.328c0-.727-.59-1.32-1.316-1.329h-.016c-.734 0-1.328.594-1.328 1.329m0 0" fill="rgb(100%, 100%, 100%)"/></svg>
